assets/images/logo-white.svg

<svg width="236" height="81" viewBox="0 0 236 81" fill="none" xmlns="http://www.w3.org/2000/svg">
<path d="M181.397 43.4083C182.484 45.3447 183.973 47.0262 185.763 48.3398C188.472 50.3002 191.518 51.3347 194.874 51.341C203.179 51.357 211.485 51.341 219.788 51.3506C220.877 51.3532 221.963 51.2464 223.031 51.0318C226.823 50.2636 229.917 48.3573 232.276 45.2938C234.666 42.1985 235.742 38.6298 235.959 34.7742C236.023 33.4753 235.965 32.1733 235.787 30.8851C235.497 28.568 234.782 26.3244 233.677 24.2673C232.584 22.2093 231.027 20.4333 229.131 19.0792C226.528 17.2064 223.402 16.1974 220.196 16.1943C215.957 16.1592 211.715 16.1847 207.476 16.1847C203.482 16.1847 199.489 16.1847 195.497 16.1847C194.759 16.1847 194.021 16.2294 193.288 16.2867C191.374 16.4504 189.51 16.9801 187.797 17.8472C184.834 19.3215 182.626 21.5784 181.09 24.4873C179.679 27.1618 179.083 30.0484 178.939 33.0417C178.891 34.2875 178.964 35.5351 179.159 36.7666C179.474 39.1031 180.234 41.3577 181.397 43.4083ZM194.188 32.8584C194.271 30.9011 194.293 28.9326 194.697 27.0008C194.907 25.9823 195.175 24.983 195.67 24.0617C196.538 22.4328 197.902 21.4621 199.717 21.1848C200.603 21.0514 201.497 20.9833 202.392 20.9807C205.785 20.9584 209.182 20.9648 212.575 20.9807C213.472 20.9766 214.366 21.0837 215.237 21.2995C216.027 21.4809 216.77 21.8292 217.414 22.3212C218.312 23.0305 218.882 23.9613 219.263 25.0212C219.575 25.9528 219.788 26.9144 219.901 27.8902C220.232 30.3161 220.259 32.7548 220.188 35.1902C220.124 37.3133 219.913 39.4252 219.231 41.459C218.799 42.7341 218.19 43.9103 217.172 44.8428C216.277 45.6743 215.141 46.2005 213.928 46.3458C213.249 46.425 212.566 46.4644 211.882 46.4638C210.288 46.4797 208.681 46.4638 207.078 46.4638V46.451C205.094 46.451 203.104 46.4733 201.115 46.451C200.092 46.4347 199.09 46.1606 198.202 45.6541C197.268 45.115 196.5 44.3313 195.98 43.3876C195.223 42.0726 194.834 40.6397 194.588 39.1606C194.365 37.8466 194.25 36.5166 194.244 35.1838C194.246 34.3996 194.151 33.6282 194.188 32.8584Z" fill="white"/>
<path d="M73.9318 51.3434H92.9899C99.2188 51.3434 105.448 51.3434 111.678 51.3434C113.017 51.3552 114.345 51.0921 115.578 50.5704C117.689 49.665 119.171 48.146 119.957 45.9768C120.352 44.8472 120.522 43.6509 120.457 42.4559C120.417 41.0459 120.006 39.6714 119.265 38.4712C118.173 36.7179 116.595 35.5273 114.762 34.6937C112.509 33.6672 110.204 32.7523 107.909 31.7976C105.786 30.9114 103.655 30.0443 101.533 29.1549L92.1404 25.2451C91.1346 24.8243 90.1257 24.4115 89.1327 23.97C88.832 23.8278 88.5581 23.6348 88.323 23.3994C87.6599 22.7618 87.9134 21.3736 88.951 21.1074C89.3091 21.0219 89.6763 20.9806 90.0444 20.9847C98.7895 20.9783 107.535 20.9783 116.281 20.9847H118.393C118.5 20.9847 118.605 20.9847 118.712 20.9847C119.415 20.9639 119.789 20.6197 119.807 19.9088C119.831 19.0306 119.817 18.1555 119.807 17.2741C119.799 17.1337 119.773 16.9949 119.729 16.8613C119.682 16.6814 119.58 16.5209 119.437 16.4024C119.294 16.2839 119.117 16.2136 118.932 16.2014C118.757 16.1865 118.58 16.1828 118.404 16.1903H109.904C100.647 16.1903 91.3902 16.1903 82.134 16.1903C80.6405 16.1903 79.1885 16.3672 77.8113 16.9617C75.8732 17.7985 74.4259 19.1485 73.6162 21.1201C73.0118 22.5687 72.7954 24.1497 72.9882 25.7073C73.0947 26.6674 73.3676 27.6016 73.7947 28.468C74.7766 30.4268 76.396 31.7179 78.3118 32.6567C79.5566 33.2671 80.8509 33.7724 82.1371 34.3143C85.7032 35.8094 89.2708 37.297 92.8401 38.7772C95.6453 39.946 98.4505 41.1149 101.256 42.2837C102.262 42.7045 103.266 43.1269 104.26 43.5732C104.528 43.7026 104.776 43.8707 104.995 44.0721C105.459 44.4785 105.523 44.9933 105.344 45.5624C105.166 46.1314 104.716 46.3848 104.157 46.4501C103.859 46.4746 103.56 46.4815 103.261 46.4709C93.5478 46.4709 83.8341 46.4709 74.1199 46.4709C73.8567 46.4678 73.5938 46.4881 73.3341 46.5314C73.1404 46.5595 72.9609 46.6492 72.8222 46.7873C72.6836 46.9254 72.5931 47.1045 72.5643 47.2981C72.5253 47.4864 72.5045 47.678 72.5021 47.8703C72.5021 48.5557 72.5021 49.241 72.5021 49.9264C72.4941 51.0549 72.7858 51.3434 73.9318 51.3434Z" fill="white"/>
<path d="M124.942 39.501C125.881 42.7366 127.542 45.5163 130.144 47.6952C132.956 50.0477 136.201 51.2941 139.867 51.3276C145.551 51.377 151.235 51.3404 156.922 51.3404H174.183C174.395 51.3404 174.607 51.3404 174.821 51.3324C175.325 51.2909 175.666 50.9913 175.677 50.4988C175.702 49.4628 175.696 48.4267 175.677 47.3891C175.681 47.1918 175.615 46.9994 175.49 46.8467C175.365 46.6941 175.189 46.5914 174.995 46.5571C174.704 46.4918 174.408 46.4598 174.11 46.4615C166.034 46.4615 157.959 46.4583 149.883 46.4519C149.198 46.4592 148.514 46.4177 147.835 46.3276C147.002 46.224 146.201 45.9427 145.486 45.5028C144.771 45.0628 144.159 44.4744 143.691 43.7774C143.007 42.794 142.618 41.6878 142.315 40.5466C141.756 38.4267 141.678 36.2431 141.595 34.0786C141.565 33.3088 141.657 32.5357 141.659 31.7643C141.668 30.4658 141.785 29.1703 142.008 27.8911C142.234 26.5698 142.594 25.2915 143.251 24.1073C143.627 23.4078 144.145 22.7953 144.773 22.3096C145.401 21.8238 146.125 21.4756 146.896 21.2877C147.87 21.0509 148.871 20.9405 149.873 20.9593H174.053C174.246 20.9593 174.442 20.9689 174.633 20.9514C175.224 20.9004 175.572 20.5465 175.58 19.9616C175.592 19.0297 175.592 18.0978 175.58 17.1659C175.58 16.5778 175.223 16.2223 174.638 16.1697C174.497 16.157 174.356 16.1697 174.215 16.1697C162.97 16.1697 151.725 16.1697 140.481 16.1697C138.865 16.1605 137.256 16.3751 135.699 16.8073C133.383 17.4475 131.256 18.6391 129.5 20.2804C127.554 22.1046 126.095 24.3875 125.258 26.9205C124.342 29.5817 123.983 32.4028 124.202 35.2087C124.3 36.6612 124.548 38.0997 124.942 39.501Z" fill="white"/>
<path d="M228.802 56.0516C227.599 56.3704 226.402 56.7147 225.195 57.0271L221.575 57.9595C220.369 58.2783 219.159 58.5636 217.946 58.8537L214.312 59.7255L210.664 60.5384C209.447 60.8078 208.235 61.0883 207.012 61.3354C197.264 63.3787 187.447 65.0311 177.562 66.2923C157.825 68.7976 137.919 69.7101 118.037 69.0211C108.11 68.6322 98.2135 67.8804 88.3474 66.7657C78.4908 65.5969 68.6975 64.0402 58.9673 62.0956C41.7988 58.6666 24.8956 54.022 8.38542 48.197L10.2248 46.4692C10.8846 45.7583 11.4664 45.1287 12.0561 44.5039C13.1612 43.3255 14.27 42.1487 15.3826 40.9735C17.155 39.0927 18.929 37.2146 20.7046 35.3391C22.2618 33.6926 23.8286 32.0541 25.3874 30.4076C26.0887 29.6665 26.7629 28.9014 27.4722 28.1762C27.9599 27.6725 28.4891 27.2087 29.1282 26.6126C29.2114 26.7574 29.3052 26.896 29.4088 27.027C30.0697 27.7581 30.7349 28.4838 31.4043 29.2042C32.825 30.7354 34.2483 32.2666 35.6743 33.7978C36.9925 35.2116 38.3026 36.6317 39.6208 38.0455C41.3246 39.8721 43.0333 41.6875 44.7371 43.511C45.2153 44.0242 45.6935 44.539 46.1716 45.0554C47.8325 46.847 49.4912 48.639 51.1477 50.4316C51.4157 50.7347 51.7471 50.9751 52.1184 51.1357C52.4898 51.2963 52.8919 51.3731 53.2963 51.3608C58.7155 51.3513 64.1347 51.3513 69.5539 51.3608C69.6945 51.3672 69.8353 51.3608 69.9747 51.3417C70.5086 51.2509 70.7509 50.8078 70.5118 50.3264C70.3821 50.0773 70.2173 49.8481 70.0225 49.6458C69.0662 48.6114 68.1099 47.5897 67.1376 46.5696C65.2058 44.5263 63.2713 42.485 61.3342 40.4459C60.1372 39.1852 58.9434 37.918 57.7464 36.6573L52.1248 30.7232L48.4589 26.8581C46.5037 24.7924 44.5448 22.7272 42.5822 20.6626C41.4936 19.5166 40.4145 18.3579 39.3227 17.2151C38.6947 16.5568 37.9727 16.1169 37.0004 16.1774C36.2465 16.2253 35.4862 16.2061 34.7307 16.1774C34.2352 16.1503 33.7446 16.2869 33.3345 16.5663C33.0469 16.765 32.7799 16.9919 32.5375 17.2437C31.2449 18.5842 29.965 19.9374 28.6772 21.2842C27.0206 23.0173 25.3555 24.7515 23.6819 26.4867C22.2102 28.0221 20.7396 29.5581 19.2701 31.0946C17.656 32.7841 16.0387 34.472 14.4183 36.1584L9.86136 40.9177C8.33123 42.5116 6.80004 44.1108 5.26779 45.7153L4.29392 46.7242C4.07078 46.9569 3.84604 47.1865 3.6229 47.4192L3.60058 47.4415L3.54639 47.4989L3.24037 47.8176C2.6586 48.4201 2.07524 49.021 1.48709 49.6267C1.37052 49.7407 1.2678 49.868 1.18107 50.006L0.02869 51.2317L0 51.262C0.0796942 51.2907 0.159388 51.3194 0.239083 51.3449C19.1201 57.8708 38.4914 62.8809 58.1688 66.3274C68.0509 68.052 77.9861 69.3877 87.9744 70.3344C97.9553 71.2334 107.955 71.7514 117.973 71.8885C137.984 72.1044 157.98 70.7079 177.767 67.7125C187.643 66.2132 197.444 64.3207 207.171 62.0351C208.391 61.7625 209.597 61.4533 210.81 61.1537L214.443 60.2531L218.061 59.2968C219.264 58.978 220.471 58.6592 221.671 58.3134L225.268 57.2996C226.469 56.9538 227.659 56.5872 228.856 56.2365C231.247 55.5368 233.619 54.7606 236 54.021C233.6 54.6937 231.212 55.4125 228.802 56.0516Z" fill="white"/>
</svg>

<svg width="236" height="81" fill="none" xmlns="http://www.w3.org/2000/svg"><path d="M181.397 43.408a15.573 15.573 0 0 0 4.366 4.932c2.709 1.96 5.755 2.995 9.111 3.001 8.305.016 16.611 0 24.914.01a16.262 16.262 0 0 0 3.243-.32c3.792-.767 6.886-2.674 9.245-5.737 2.39-3.095 3.466-6.664 3.683-10.52a20.9 20.9 0 0 0-.172-3.889 18.96 18.96 0 0 0-2.11-6.618 15.053 15.053 0 0 0-4.546-5.188 15.326 15.326 0 0 0-8.935-2.885c-4.239-.035-8.481-.01-12.72-.01h-11.979c-.738 0-1.476.045-2.209.103a14.985 14.985 0 0 0-5.491 1.56c-2.963 1.474-5.171 3.731-6.707 6.64-1.411 2.675-2.007 5.561-2.151 8.555a19.112 19.112 0 0 0 .22 3.725 18.464 18.464 0 0 0 2.238 6.641Zm12.791-10.55c.083-1.957.105-3.925.509-5.857.21-1.019.478-2.018.973-2.94.868-1.628 2.232-2.599 4.047-2.876.886-.134 1.78-.202 2.675-.204 3.393-.023 6.79-.016 10.183 0 .897-.004 1.791.103 2.662.318.79.182 1.533.53 2.177 1.022.898.71 1.468 1.64 1.849 2.7.312.932.525 1.893.638 2.87.331 2.425.358 4.864.287 7.3-.064 2.122-.275 4.234-.957 6.268-.432 1.275-1.041 2.451-2.059 3.384a5.776 5.776 0 0 1-3.244 1.503c-.679.079-1.362.118-2.046.118-1.594.016-3.201 0-4.804 0v-.013c-1.984 0-3.974.022-5.963 0a6.075 6.075 0 0 1-2.913-.797 5.91 5.91 0 0 1-2.222-2.266c-.757-1.315-1.146-2.748-1.392-4.227a24.425 24.425 0 0 1-.344-3.977c.002-.784-.093-1.556-.056-2.326ZM73.932 51.343H111.678a9.79 9.79 0 0 0 3.9-.773c2.111-.905 3.593-2.424 4.379-4.593a9.16 9.16 0 0 0 .5-3.521 8.018 8.018 0 0 0-1.192-3.985c-1.092-1.753-2.67-2.944-4.503-3.777-2.253-1.027-4.558-1.942-6.853-2.896-2.123-.887-4.254-1.754-6.376-2.643l-9.393-3.91c-1.005-.42-2.014-.834-3.007-1.275a2.891 2.891 0 0 1-.81-.57c-.663-.638-.41-2.026.628-2.293a4.493 4.493 0 0 1 1.093-.122c8.746-.007 17.491-.007 26.237 0h2.431c.703-.021 1.077-.365 1.095-1.076.024-.878.01-1.753 0-2.635a1.613 1.613 0 0 0-.078-.413.887.887 0 0 0-.797-.66 4.152 4.152 0 0 0-.528-.01H82.134c-1.493 0-2.945.176-4.323.77-1.938.838-3.385 2.188-4.195 4.16a9.032 9.032 0 0 0-.628 4.586c.107.96.38 1.895.807 2.761.982 1.959 2.601 3.25 4.517 4.189 1.245.61 2.539 1.115 3.825 1.657 3.566 1.495 7.134 2.983 10.703 4.463l8.416 3.507c1.006.42 2.01.843 3.004 1.29.268.129.516.297.735.498.464.406.528.921.349 1.49-.178.57-.628.823-1.187.888a7.632 7.632 0 0 1-.896.02H74.12a4.458 4.458 0 0 0-.786.061.91.91 0 0 0-.77.767c-.039.188-.06.38-.062.572v2.056c-.008 1.129.284 1.417 1.43 1.417ZM124.942 39.501c.939 3.236 2.6 6.015 5.202 8.194 2.812 2.353 6.057 3.6 9.723 3.633 5.684.049 11.368.012 17.055.012h17.261c.212 0 .424 0 .638-.008.504-.041.845-.34.856-.833a73.268 73.268 0 0 0 0-3.11.83.83 0 0 0-.682-.832 3.933 3.933 0 0 0-.885-.096c-8.076 0-16.151-.003-24.227-.01a14.398 14.398 0 0 1-2.048-.123 5.864 5.864 0 0 1-4.144-2.55c-.684-.984-1.073-2.09-1.376-3.231-.559-2.12-.637-4.304-.72-6.468-.03-.77.062-1.543.064-2.315.009-1.298.126-2.594.349-3.873.226-1.321.586-2.6 1.243-3.784a5.658 5.658 0 0 1 3.645-2.82 11.677 11.677 0 0 1 2.977-.328h24.18c.193 0 .389.01.58-.008.591-.05.939-.404.947-.99.012-.931.012-1.863 0-2.795 0-.588-.357-.944-.942-.996-.141-.013-.282 0-.423 0h-33.734a17.505 17.505 0 0 0-4.782.637 14.887 14.887 0 0 0-6.199 3.473 15.97 15.97 0 0 0-4.242 6.64 20.552 20.552 0 0 0-1.056 8.289c.098 1.452.346 2.89.74 4.292Z" fill="#fff"/><path d="M228.802 56.052c-1.203.318-2.4.663-3.607.975l-3.62.932c-1.206.32-2.416.605-3.629.895l-3.634.871-3.648.813c-1.217.27-2.429.55-3.652.797a374.575 374.575 0 0 1-29.45 4.957 370.74 370.74 0 0 1-59.525 2.73 405.888 405.888 0 0 1-29.69-2.256 375.454 375.454 0 0 1-29.38-4.67A369.604 369.604 0 0 1 8.385 48.197l1.84-1.728c.66-.71 1.241-1.34 1.831-1.965 1.105-1.178 2.214-2.355 3.327-3.53a3356.45 3356.45 0 0 1 5.322-5.635c1.557-1.646 3.124-3.285 4.682-4.931.702-.742 1.376-1.507 2.085-2.232.488-.503 1.017-.967 1.656-1.563.083.144.177.283.28.414.662.731 1.327 1.457 1.996 2.177 1.421 1.531 2.844 3.063 4.27 4.594 1.319 1.414 2.629 2.834 3.947 4.247 1.704 1.827 3.412 3.642 5.116 5.466l1.435 1.544c1.66 1.792 3.32 3.584 4.976 5.377a2.756 2.756 0 0 0 2.148.929c5.42-.01 10.839-.01 16.258 0 .14.006.281 0 .42-.02.535-.09.777-.533.538-1.015a2.936 2.936 0 0 0-.49-.68 276.356 276.356 0 0 0-2.884-3.076 3522.34 3522.34 0 0 0-5.804-6.124c-1.197-1.26-2.39-2.528-3.588-3.789l-5.621-5.934-3.666-3.865c-1.955-2.066-3.914-4.13-5.877-6.195-1.088-1.146-2.168-2.305-3.26-3.448-.627-.658-1.35-1.098-2.322-1.038-.754.048-1.514.03-2.27 0a2.26 2.26 0 0 0-1.395.39 5.243 5.243 0 0 0-.797.677c-1.293 1.34-2.573 2.693-3.86 4.04a1604.326 1604.326 0 0 1-4.996 5.203 5773.057 5773.057 0 0 0-4.412 4.608c-1.614 1.69-3.231 3.377-4.852 5.063l-4.557 4.76c-1.53 1.594-3.061 3.193-4.593 4.797l-.974 1.01-.671.694-.022.023-.055.057-.306.319c-.581.602-1.165 1.203-1.753 1.809-.116.114-.22.241-.306.379L.03 51.232l-.029.03a375.809 375.809 0 0 0 58.169 15.065 384.138 384.138 0 0 0 29.805 4.007 394.45 394.45 0 0 0 29.999 1.554 372.629 372.629 0 0 0 59.794-4.175 373.694 373.694 0 0 0 29.404-5.678c1.22-.272 2.426-.582 3.639-.881l3.633-.9 3.618-.957c1.203-.319 2.41-.638 3.61-.984l3.597-1.013c1.201-.346 2.391-.713 3.588-1.063 2.391-.7 4.763-1.476 7.144-2.216-2.4.673-4.788 1.392-7.198 2.03Z" fill="#fff"/></svg>
